X:1
T:Training Boogie C
T:Boogie /Blues etude
T:Pianolessen.eu
T:Pianolessen.eu
T:Pianolessen.eu
C:Bewerking Arjan Samson
Z:Pianolessen.eu
%%score { 1 | 2 }
L:1/8
Q:1/4=100
M:4/4
K:C
V:1 treble nm="Piano" snm="Pno."
V:2 bass 
V:1
"^\n" !3!_E>!3!=E !5!G>_E =E>G _E>=E | G>_E =E>G z4 | _E>=E G>_E =E>G _E>=E | G>_E =E>G z4 | %4
 _A>=A c>_A =A>c _A>=A | c>_A =A>c z4 | !3!_E>!3!=E !5!G>_E =E>G _E>=E | G>_E =E>G z4 | %8
 ^A>B d>A B>d z2 | _A>=A c>_A =A>c z2 | !3!_E>!3!=E !5!G>_E =E>G _E>=E | G>_E =E>G z4 | [Ec]4 z4 |] %13
V:2
 !5!C,,>!1!G,, !2!^F,,>G,, C,,>G,, F,,>G,, | C,,>G,, ^F,,>G,, C,,>G,, F,,>G,, | %2
 C,,>G,, ^F,,>G,, C,,>G,, F,,>G,, | C,,>G,, ^F,,>G,, C,,>G,, F,,>G,, | %4
 !5!F,,>!1!C, !2!B,,>C, F,,>C, B,,>C, | F,,>C, B,,>C, F,,>C, B,,>C, | %6
 !5!C,,>!1!G,, !2!^F,,>G,, C,,>G,, F,,>G,, | C,,>G,, ^F,,>G,, C,,>G,, F,,>G,, | %8
 !5!G,,>!1!D, !2!^C,>D, G,,>D, C,>D, | F,,>C, B,,>C, F,,>C, B,,>C, | %10
 !5!C,,>!1!G,, !2!^F,,>G,, C,,>G,, F,,>G,, | C,,>G,, ^F,,>G,, C,,>G,, F,,>G,, | C,,4 z4 |] %13

